src/assets/create-load-status-2.svg

<svg width="331" height="18" viewBox="0 0 331 18" fill="none" xmlns="http://www.w3.org/2000/svg">
<path d="M1.04 11.98C1.288 11.732 1.78 11.236 2.516 10.492C3.252 9.74 3.764 9.208 4.052 8.896C4.46 8.456 4.736 8.112 4.88 7.864C5.024 7.616 5.096 7.316 5.096 6.964C5.096 6.724 5.032 6.5 4.904 6.292C4.784 6.076 4.604 5.904 4.364 5.776C4.132 5.64 3.852 5.572 3.524 5.572C3.092 5.572 2.744 5.7 2.48 5.956C2.224 6.204 2.056 6.476 1.976 6.772L1.04 6.4C1.12 6.144 1.264 5.88 1.472 5.608C1.68 5.328 1.96 5.092 2.312 4.9C2.664 4.7 3.08 4.6 3.56 4.6C4.064 4.6 4.508 4.708 4.892 4.924C5.284 5.14 5.588 5.428 5.804 5.788C6.02 6.148 6.128 6.536 6.128 6.952C6.128 7.792 5.688 8.66 4.808 9.556L2.348 12.028H6.224V13H1.04V11.98ZM10.7407 4.408H11.6887L8.12469 13H7.17669L10.7407 4.408ZM15.8276 11.236H11.8916V10.468L15.7316 4.792H16.8356V10.276H17.8916V11.236H16.8356V13H15.8276V11.236ZM15.8276 10.276V6.28H15.7796L13.0556 10.276H15.8276Z" fill="#9390A0"/>
<rect x="22.5" y="7" width="65" height="4" rx="2" fill="#07AFF0"/>
<rect x="103.5" y="7" width="65" height="4" rx="2" fill="#07AFF0"/>
<rect x="184.5" y="7" width="65" height="4" rx="2" fill="#EFEFEF"/>
<rect x="265.5" y="7" width="65" height="4" rx="2" fill="#EFEFEF"/>
</svg>

<svg width="331" height="18" fill="none" xmlns="http://www.w3.org/2000/svg"><path d="M1.04 11.98c.248-.248.74-.744 1.476-1.488a88.318 88.318 0 001.536-1.596c.408-.44.684-.784.828-1.032.144-.248.216-.548.216-.9 0-.24-.064-.464-.192-.672-.12-.216-.3-.388-.54-.516-.232-.136-.512-.204-.84-.204-.432 0-.78.128-1.044.384-.256.248-.424.52-.504.816L1.04 6.4a2.6 2.6 0 01.432-.792 2.54 2.54 0 01.84-.708c.352-.2.768-.3 1.248-.3.504 0 .948.108 1.332.324.392.216.696.504.912.864.216.36.324.748.324 1.164 0 .84-.44 1.708-1.32 2.604l-2.46 2.472h3.876V13H1.04v-1.02zm9.7-7.572h.949L8.125 13h-.948l3.564-8.592zm5.088 6.828h-3.936v-.768l3.84-5.676h1.104v5.484h1.056v.96h-1.056V13h-1.008v-1.764zm0-.96V6.28h-.048l-2.724 3.996h2.772z" fill="#9390A0"/><rect x="22.5" y="7" width="65" height="4" rx="2" fill="#07AFF0"/><rect x="103.5" y="7" width="65" height="4" rx="2" fill="#07AFF0"/><rect x="184.5" y="7" width="65" height="4" rx="2" fill="#EFEFEF"/><rect x="265.5" y="7" width="65" height="4" rx="2" fill="#EFEFEF"/></svg>
